X: 21595
T: Killarney Boys Of Pleasure, The
R: reel
M: 4/4
K: Eminor
E>FDE FA B2|AFDE FA B2|defe d B3|dAFD DEF<D:|
EFEB, B2 dA|FDEF ABAB|defe d B3|AF F3 EE D||
B2 e<B B2 e<B|dBAF DEFA|f>fef gfed|BAFD DEF<A|
B2 e<B B2 e<B|dBAF DEFA|f>fef gfed|BAFF EED2:|

